X:1
T:Fuggit'Amor
T:Fuggit'Amor
T:Ludovico Bellanda Veronese
T:Source : Musische di L.Bellanda---Venetia---G.Vincenti---1607. Editor : André Vierendeels (28/06/15).
T:Notes : Original clefs : C4, F4, F4 Editorial accidentals above the staff Figures in BC are notated in original print Original print notated in 3/2 
T:Baletto
C:Ludovico Bellanda Veronese
%%score [ 1 2 ] 3
L:1/8
Q:1/4=150
M:3/4
K:C
V:1 treble-8 nm="Tenor" snm="T"
V:2 bass nm="Bass" snm="B"
V:3 bass nm="BC" snm="BC"
V:1
 A2 B2 c2 | d6 | A2 A2 ^G2 | A6 | G2 F2 D2 | C2 z2 z2 | z6 | z6 | z6 | z6 | z6 :: F2 F2 F2 | %12
w: Fug- git' A-|mor,|per che do-|lor|a voi da-|ta,||||||quan- do si|
w: Fug- git' ahi-|me,|ch'è sen- za|ste|e tal sa-|ra,||||||ne vi pen-|
 G4 G2 | G2 A2 B2 | c4 c2 | B3 B A2 | ^G2 z2 z2 | z6 | z6 :| %19
w: cre- de,|tro- var mer-|ce- de,|mor- te ci|da.|||
w: sa- te,|tro- var pie-|ta- te,|in chi non-|n'ha.|||
V:2
 F,2 D,2 C,2 | G,6 | C,2 D,2 E,2 | D,3 E, ^F,2 | G,2 A,2 B,2 | C2 z2 z2 | z6 | z6 | z6 | z6 | z6 :: %11
w: Fug- git' A-|mor,|per che do-|lor _ _|a voi da-|ta,||||||
w: Fug- git' ahi-|me,|chè sen- za|ste _ _|e tal sa-|ra,||||||
 D,2 D,2 D,2 | C,4 C,2 | C,2 F,2 D,2 | C,4 C,2 | G,3 G, D,2 | E,2 z2 z2 | z6 | z6 :| %19
w: quan- do si|cre- de,|tro- var mer-|ce- de,|mor- te ci|da.|||
w: ne vi pen-|sa- te,|tro- var pie-|ta- te,|in chi non-|n'ha.|||
V:3
"^6" F,2 D,2 C,2 | G,,6 |"^6""^#" C,2 D,2 E,2 | D,3 E, ^F,2 |"^-natural" G,2 F,2 D,2 | %5
 C,2 A,,B,, C,D, |"^#""^-natural" E,F, G,2 F,E, | F,3 G, F,2 |"^#" D,4 E,2- | E,2 E,,4 | %10
"^#" A,,6 :: D,2 D,2 D,2 | C,4 C,2 |"^6" C,2 F,2 D,2 | C,4 C,2 | G,,3 G,, D,2 |"^#" E,3 D, C,2 | %17
"^#""^#" D,2 E,2 E,,2 |"^#" A,,6 :| %19

